svg/m/HR.svg

<svg width="20" height="15" viewBox="0 0 20 15" fill="none" xmlns="http://www.w3.org/2000/svg">
<g clip-path="url(#clip0_270_60953)">
<rect width="20" height="15" fill="white"/>
<path fill-rule="evenodd" clip-rule="evenodd" d="M0 0V15H20V0H0Z" fill="#F7FCFF"/>
<mask id="mask0_270_60953" style="mask-type:luminance" maskUnits="userSpaceOnUse" x="0" y="0" width="20" height="15">
<path fill-rule="evenodd" clip-rule="evenodd" d="M0 0V15H20V0H0Z" fill="white"/>
</mask>
<g mask="url(#mask0_270_60953)">
<path fill-rule="evenodd" clip-rule="evenodd" d="M0 0V5H20V0H0Z" fill="#E31D1C"/>
<path fill-rule="evenodd" clip-rule="evenodd" d="M0 10V15H20V10H0Z" fill="#3D58DB"/>
<rect x="6.29785" y="3.99834" width="7.125" height="2.5" fill="#E31D1C"/>
<path d="M6.65767 5.5999H12.988C12.9987 6.0805 13.0019 6.91887 13.0018 7.72596C13.0018 8.24716 13.0004 8.74894 12.9991 9.12046L12.9972 9.56606L12.9966 9.68953L12.9965 9.7073L12.9962 9.70935C12.9934 9.72599 12.9887 9.75217 12.9815 9.78653C12.9671 9.85533 12.9429 9.95633 12.9043 10.0787C12.827 10.3246 12.6939 10.6505 12.472 10.9743C12.038 11.608 11.2499 12.2596 9.78113 12.2596C8.31431 12.2596 7.56438 11.6089 7.16521 10.9813C6.96024 10.659 6.84319 10.3342 6.77768 10.0886C6.74508 9.96636 6.72571 9.86547 6.71463 9.79672C6.7091 9.7624 6.70566 9.73625 6.70368 9.71965L6.70249 9.7089L6.70216 9.68135L6.70067 9.55866L6.69536 9.11582C6.69097 8.74652 6.68511 8.24738 6.67926 7.72797C6.67031 6.93434 6.66139 6.09586 6.65767 5.5999ZM6.70145 9.6991C6.70144 9.69893 6.70143 9.69892 6.70145 9.69908L6.70145 9.6991Z" fill="#F7FCFF" stroke="#E31D1C" stroke-width="0.703125"/>
<mask id="mask1_270_60953" style="mask-type:luminance" maskUnits="userSpaceOnUse" x="6" y="5" width="8" height="8">
<path d="M6.65767 5.5999H12.988C12.9987 6.0805 13.0019 6.91887 13.0018 7.72596C13.0018 8.24716 13.0004 8.74894 12.9991 9.12046L12.9972 9.56606L12.9966 9.68953L12.9965 9.7073L12.9962 9.70935C12.9934 9.72599 12.9887 9.75217 12.9815 9.78653C12.9671 9.85533 12.9429 9.95633 12.9043 10.0787C12.827 10.3246 12.6939 10.6505 12.472 10.9743C12.038 11.608 11.2499 12.2596 9.78113 12.2596C8.31431 12.2596 7.56438 11.6089 7.16521 10.9813C6.96024 10.659 6.84319 10.3342 6.77768 10.0886C6.74508 9.96636 6.72571 9.86547 6.71463 9.79672C6.7091 9.7624 6.70566 9.73625 6.70368 9.71965L6.70249 9.7089L6.70216 9.68135L6.70067 9.55866L6.69536 9.11582C6.69097 8.74652 6.68511 8.24738 6.67926 7.72797C6.67031 6.93434 6.66139 6.09586 6.65767 5.5999ZM6.70145 9.6991C6.70144 9.69893 6.70143 9.69892 6.70145 9.69908L6.70145 9.6991Z" fill="white" stroke="white" stroke-width="0.703125"/>
</mask>
<g mask="url(#mask1_270_60953)">
<path fill-rule="evenodd" clip-rule="evenodd" d="M6.56152 5.64995H7.87988V6.98864H6.56152V5.64995ZM9.19824 6.98864H7.87988V8.32732H6.56152V9.66601L7.87988 9.66601V11.0047H6.56152V12.3434H7.87988V11.0047H9.19824V12.3434H10.5166V11.0047H11.835V12.3434H13.1533V11.0047H11.835V9.66601L13.1533 9.66601V8.32732H11.835V6.98864H13.1533V5.64995H11.835V6.98864H10.5166V5.64995H9.19824V6.98864ZM9.19824 8.32732V6.98864H10.5166V8.32732H9.19824ZM9.19824 9.66601V8.32732H7.87988V9.66601H9.19824ZM10.5166 9.66601V11.0047H9.19824V9.66601H10.5166ZM10.5166 9.66601V8.32732H11.835V9.66601H10.5166Z" fill="#F50100"/>
</g>
<path fill-rule="evenodd" clip-rule="evenodd" d="M6.53316 5.10165C6.53316 5.10165 6.94093 4.88384 7.28873 4.77159C7.63653 4.65935 7.91143 4.59802 7.91143 4.59802L7.39397 2.69046L6.35752 2.30322L5.77051 3.27079L6.53316 5.10165Z" fill="#56C6F5" stroke="white" stroke-width="0.5"/>
<path d="M6.36317 4.05675L6.48226 3.99934C6.60525 4.26241 6.76737 4.34367 6.98958 4.26074C7.21656 4.17603 7.3091 4.01585 7.27645 3.7619L7.40717 3.74457C7.44771 4.0598 7.32059 4.27983 7.03506 4.38639C6.74476 4.49473 6.51381 4.37897 6.36317 4.05675Z" fill="white"/>
<path fill-rule="evenodd" clip-rule="evenodd" d="M6.64521 3.46366L6.53135 3.53264C6.50616 3.5479 6.47483 3.52596 6.48056 3.49707L6.50643 3.36648L6.38976 3.30236C6.36395 3.28818 6.36728 3.25008 6.39517 3.24059L6.52119 3.1977L6.51839 3.06461C6.51777 3.03516 6.55243 3.019 6.57459 3.0384L6.67475 3.1261L6.78861 3.05712C6.8138 3.04186 6.84513 3.0638 6.83941 3.09269L6.81354 3.22328L6.9302 3.2874C6.95601 3.30159 6.95268 3.33968 6.92479 3.34917L6.79877 3.39206L6.80157 3.52515C6.80219 3.5546 6.76753 3.57077 6.74537 3.55136L6.64521 3.46366Z" fill="#FECA00"/>
<path fill-rule="evenodd" clip-rule="evenodd" d="M9.08799 4.42238C9.08799 4.42238 9.43574 4.39134 9.80114 4.39844C10.1665 4.40554 10.4757 4.40814 10.4757 4.40814L10.6541 2.52721L9.87142 1.82009L9.00138 2.54383L9.08799 4.42238Z" fill="#56C6F5" stroke="white" stroke-width="0.5"/>
<path fill-rule="evenodd" clip-rule="evenodd" d="M9.84389 4.11551C10.1454 4.11551 10.1742 3.78991 10.1742 3.56811C10.0971 3.44509 10.1127 3.35706 9.86558 3.35706C9.6185 3.35706 9.59029 3.43172 9.5182 3.56811C9.5182 3.78991 9.54242 4.11551 9.84389 4.11551Z" fill="#FECA00"/>
<path fill-rule="evenodd" clip-rule="evenodd" d="M10.1831 3.19555C10.4846 3.19555 10.5135 2.86994 10.5135 2.64814C10.4364 2.52512 10.4519 2.43709 10.2048 2.43709C9.95772 2.43709 9.92951 2.51175 9.85742 2.64814C9.85742 2.86994 9.88165 3.19555 10.1831 3.19555Z" fill="#FECA00"/>
<path fill-rule="evenodd" clip-rule="evenodd" d="M9.52393 3.19555C9.8254 3.19555 9.85427 2.86994 9.85427 2.64814C9.77719 2.52512 9.79272 2.43709 9.54563 2.43709C9.29854 2.43709 9.27034 2.51175 9.19824 2.64814C9.19824 2.86994 9.22247 3.19555 9.52393 3.19555Z" fill="#FECA00"/>
<path d="M7.64292 4.62658L7.71495 4.87127L7.95812 4.79434L7.95813 4.79434L7.95815 4.79434L7.95826 4.7943L7.95894 4.79409L7.96198 4.79313L7.97437 4.78928L8.02146 4.77495C8.06172 4.76287 8.11786 4.74641 8.18121 4.72897C8.31144 4.69312 8.45954 4.65665 8.5636 4.64219C8.67595 4.62658 8.81758 4.61499 8.9345 4.60725C8.99223 4.60343 9.04261 4.60063 9.07848 4.5988L9.12035 4.59676L9.13136 4.59627L9.13408 4.59616L9.1347 4.59613L9.13483 4.59612H9.13483L9.13484 4.59612L9.13484 4.59612L9.39611 4.58539L9.37364 4.32485L9.21597 2.49709L9.20602 2.38177L9.11165 2.31475L8.25995 1.70987L8.08458 1.58533L7.93526 1.74013L7.16121 2.54258L7.06025 2.64724L7.10132 2.78674L7.64292 4.62658Z" fill="#2E42A5" stroke="white" stroke-width="0.5"/>
<mask id="mask2_270_60953" style="mask-type:luminance" maskUnits="userSpaceOnUse" x="6" y="1" width="4" height="5">
<path d="M7.64292 4.62658L7.71495 4.87127L7.95812 4.79434L7.95813 4.79434L7.95815 4.79434L7.95826 4.7943L7.95894 4.79409L7.96198 4.79313L7.97437 4.78928L8.02146 4.77495C8.06172 4.76287 8.11786 4.74641 8.18121 4.72897C8.31144 4.69312 8.45954 4.65665 8.5636 4.64219C8.67595 4.62658 8.81758 4.61499 8.9345 4.60725C8.99223 4.60343 9.04261 4.60063 9.07848 4.5988L9.12035 4.59676L9.13136 4.59627L9.13408 4.59616L9.1347 4.59613L9.13483 4.59612H9.13483L9.13484 4.59612L9.13484 4.59612L9.39611 4.58539L9.37364 4.32485L9.21597 2.49709L9.20602 2.38177L9.11165 2.31475L8.25995 1.70987L8.08458 1.58533L7.93526 1.74013L7.16121 2.54258L7.06025 2.64724L7.10132 2.78674L7.64292 4.62658Z" fill="white" stroke="white" stroke-width="0.5"/>
</mask>
<g mask="url(#mask2_270_60953)">
<path d="M7.77277 4.14864L7.61621 3.77984C7.95247 3.63266 8.52049 3.54235 9.11822 3.50703L9.14119 3.90796C8.58552 3.94079 8.0599 4.02297 7.77277 4.14864Z" fill="#C51918"/>
<path d="M7.50855 3.25654L7.35199 2.88774C7.68824 2.74056 8.411 2.6214 9.00873 2.58609L9.0317 2.98702C8.47603 3.01985 7.79568 3.13086 7.50855 3.25654Z" fill="#C51918"/>
</g>
<path d="M11.9884 4.62112L11.9204 4.87304L11.6716 4.79434L11.6716 4.79434L11.6716 4.79434L11.6715 4.7943L11.6708 4.79409L11.6678 4.79313L11.6554 4.78928L11.6083 4.77495C11.568 4.76287 11.5119 4.74641 11.4486 4.72897C11.3183 4.69312 11.1702 4.65665 11.0662 4.64219C10.9538 4.62658 10.8122 4.61499 10.6953 4.60725C10.6375 4.60343 10.5872 4.60063 10.5513 4.5988L10.5094 4.59676L10.4984 4.59627L10.4957 4.59616L10.4951 4.59613L10.4949 4.59612H10.4949L10.4949 4.59612L10.4949 4.59612L10.2337 4.58539L10.2561 4.32485L10.4138 2.49709L10.4237 2.38177L10.5181 2.31475L11.3698 1.70987L11.5501 1.58182L11.6992 1.74514L12.429 2.54456L12.5215 2.64584L12.4857 2.77825L11.9884 4.62112Z" fill="#2E42A5" stroke="white" stroke-width="0.5"/>
<mask id="mask3_270_60953" style="mask-type:luminance" maskUnits="userSpaceOnUse" x="9" y="1" width="4" height="5">
<path d="M11.9884 4.62112L11.9204 4.87304L11.6716 4.79434L11.6716 4.79434L11.6716 4.79434L11.6715 4.7943L11.6708 4.79409L11.6678 4.79313L11.6554 4.78928L11.6083 4.77495C11.568 4.76287 11.5119 4.74641 11.4486 4.72897C11.3183 4.69312 11.1702 4.65665 11.0662 4.64219C10.9538 4.62658 10.8122 4.61499 10.6953 4.60725C10.6375 4.60343 10.5872 4.60063 10.5513 4.5988L10.5094 4.59676L10.4984 4.59627L10.4957 4.59616L10.4951 4.59613L10.4949 4.59612H10.4949L10.4949 4.59612L10.4949 4.59612L10.2337 4.58539L10.2561 4.32485L10.4138 2.49709L10.4237 2.38177L10.5181 2.31475L11.3698 1.70987L11.5501 1.58182L11.6992 1.74514L12.429 2.54456L12.5215 2.64584L12.4857 2.77825L11.9884 4.62112Z" fill="white" stroke="white" stroke-width="0.5"/>
</mask>
<g mask="url(#mask3_270_60953)">
<path fill-rule="evenodd" clip-rule="evenodd" d="M11.4986 4.04155C11.4986 4.04155 11.6824 3.93928 11.7088 3.76686C11.7353 3.59443 12.0195 3.38206 11.8774 3.40733C11.7353 3.43261 11.8166 3.45235 11.6108 3.40733C11.4051 3.36231 11.1387 3.33254 11.1387 3.20604C11.1387 3.07955 11.2711 2.97916 11.1629 2.97916C11.0547 2.97916 10.8238 2.85944 10.8702 2.95094C10.9166 3.04245 10.7635 2.93898 10.84 3.12896C10.9166 3.31894 10.8238 3.51032 10.8702 3.56068C10.9166 3.61104 10.84 3.85804 10.84 3.85804C10.84 3.85804 10.8681 3.94978 10.9173 3.81237C10.9665 3.67497 11.074 3.57865 11.0203 3.69551C10.9665 3.81237 10.8978 4.09033 10.9591 4.04155C11.0203 3.99277 11.0811 3.85789 11.0811 3.81237C11.0811 3.76686 11.2355 3.58819 11.2355 3.72312C11.2355 3.85804 11.0903 3.96429 11.1629 3.96429C11.2355 3.96429 11.2763 3.99296 11.3219 3.85804C11.3676 3.72312 11.4785 3.63386 11.524 3.72312C11.5695 3.81237 11.5595 3.8076 11.4986 3.92458C11.4378 4.04155 11.4986 4.04155 11.4986 4.04155Z" fill="#FECA00"/>
<path fill-rule="evenodd" clip-rule="evenodd" d="M11.067 3.04157L10.9986 2.92713C11.1214 2.85149 11.2341 2.83134 11.333 2.87351C11.378 2.89268 11.412 2.91452 11.5003 2.97668L11.5119 2.98479C11.6039 3.04933 11.6526 3.07561 11.6826 3.07561V3.20948C11.6139 3.20948 11.5546 3.17744 11.4369 3.09494L11.4252 3.08672C11.3457 3.03078 11.315 3.011 11.282 2.99695C11.2273 2.97363 11.1568 2.98622 11.067 3.04157ZM10.8506 3.91466C10.8894 3.91466 10.9209 3.88357 10.9209 3.84521C10.9209 3.80686 10.8894 3.77577 10.8506 3.77577C10.8118 3.77577 10.7803 3.80686 10.7803 3.84521C10.7803 3.88357 10.8118 3.91466 10.8506 3.91466ZM11.0527 3.97908C11.0527 4.01744 11.0213 4.04853 10.9824 4.04853C10.9436 4.04853 10.9121 4.01744 10.9121 3.97908C10.9121 3.94073 10.9436 3.90964 10.9824 3.90964C11.0213 3.90964 11.0527 3.94073 11.0527 3.97908ZM11.2192 4.04336C11.2581 4.04336 11.2896 4.01227 11.2896 3.97392C11.2896 3.93557 11.2581 3.90448 11.2192 3.90448C11.1804 3.90448 11.1489 3.93557 11.1489 3.97392C11.1489 4.01227 11.1804 4.04336 11.2192 4.04336ZM11.5098 4.08506C11.5098 4.12341 11.4784 4.1545 11.4395 4.1545C11.4007 4.1545 11.3692 4.12341 11.3692 4.08506C11.3692 4.0467 11.4007 4.01561 11.4395 4.01561C11.4784 4.01561 11.5098 4.0467 11.5098 4.08506Z" fill="#C51918"/>
</g>
<path d="M13.4313 5.15356L13.3233 5.40229L13.0842 5.27456L13.0842 5.27456L13.0842 5.27455L13.0842 5.27454L13.0841 5.27451L13.0835 5.27417L13.0805 5.2726L13.0681 5.26607C13.057 5.26029 13.0405 5.25177 13.0196 5.24114C12.9777 5.21986 12.9181 5.19025 12.8481 5.15726C12.7062 5.09047 12.5285 5.01317 12.3696 4.96188C12.2011 4.90752 12.0501 4.86541 11.9413 4.83694C11.887 4.82272 11.8434 4.81195 11.8136 4.8048L11.7798 4.79681L11.7715 4.7949L11.7696 4.79447L11.7692 4.79439L11.7692 4.79438L11.7692 4.79438L11.7692 4.79438L11.7692 4.79438L11.5108 4.73673L11.5832 4.48203L12.112 2.6221L12.1465 2.50051L12.2649 2.45627L13.3014 2.06903L13.4953 1.9966L13.6026 2.17355L14.1896 3.14111L14.2567 3.25168L14.2052 3.37032L13.4313 5.15356Z" fill="#56C6F5" stroke="white" stroke-width="0.5"/>
<mask id="mask4_270_60953" style="mask-type:luminance" maskUnits="userSpaceOnUse" x="11" y="1" width="4" height="5">
<path d="M13.4313 5.15356L13.3233 5.40229L13.0842 5.27456L13.0842 5.27456L13.0842 5.27455L13.0842 5.27454L13.0841 5.27451L13.0835 5.27417L13.0805 5.2726L13.0681 5.26607C13.057 5.26029 13.0405 5.25177 13.0196 5.24114C12.9777 5.21986 12.9181 5.19025 12.8481 5.15726C12.7062 5.09047 12.5285 5.01317 12.3696 4.96188C12.2011 4.90752 12.0501 4.86541 11.9413 4.83694C11.887 4.82272 11.8434 4.81195 11.8136 4.8048L11.7798 4.79681L11.7715 4.7949L11.7696 4.79447L11.7692 4.79439L11.7692 4.79438L11.7692 4.79438L11.7692 4.79438L11.7692 4.79438L11.5108 4.73673L11.5832 4.48203L12.112 2.6221L12.1465 2.50051L12.2649 2.45627L13.3014 2.06903L13.4953 1.9966L13.6026 2.17355L14.1896 3.14111L14.2567 3.25168L14.2052 3.37032L13.4313 5.15356Z" fill="white" stroke="white" stroke-width="0.5"/>
</mask>
<g mask="url(#mask4_270_60953)">
<path fill-rule="evenodd" clip-rule="evenodd" d="M13.2046 3.18071L13.1159 3.27996C13.0963 3.30192 13.0599 3.2901 13.057 3.26079L13.0435 3.12835L12.9132 3.10114C12.8844 3.09512 12.8764 3.05771 12.9003 3.04049L13.0083 2.96263L12.9667 2.83617C12.9575 2.80818 12.9859 2.7826 13.0128 2.79467L13.1342 2.84926L13.2229 2.75001C13.2425 2.72805 13.2789 2.73986 13.2819 2.76917L13.2953 2.90161L13.4256 2.92882C13.4545 2.93484 13.4624 2.97225 13.4385 2.98948L13.3306 3.06734L13.3722 3.1938C13.3814 3.22178 13.3529 3.24737 13.3261 3.23529L13.2046 3.18071Z" fill="#FECA00"/>
<path d="M11.872 4.05477L12.0047 3.53654C12.5927 3.69186 13.2056 3.89091 13.6553 4.08339L13.4504 4.57682C13.0256 4.39498 12.4366 4.20391 11.872 4.05477Z" fill="#E31D1C"/>
<path d="M12.052 3.57624L12.0833 3.4462C12.6469 3.58608 13.2461 3.80929 13.6815 4.01718L13.6254 4.13832C13.1983 3.93442 12.6075 3.7141 12.052 3.57624Z" fill="white"/>
<path d="M11.8849 4.11033L11.9162 3.98029C12.4799 4.12017 13.0009 4.30998 13.4363 4.51787L13.3802 4.63901C12.9532 4.43512 12.4404 4.24819 11.8849 4.11033Z" fill="white"/>
<path d="M12.1393 3.85938L12.26 3.80487C12.3108 3.92382 12.3736 3.95002 12.4785 3.89904C12.7264 3.77863 13.3411 3.9469 13.3411 4.17379C13.3411 4.26231 13.2898 4.31598 13.2115 4.31287C13.1673 4.31111 13.1201 4.29365 13.0508 4.25942C13.0424 4.25527 13.0369 4.25249 13.0233 4.24557C12.9468 4.20653 12.941 4.20368 12.9206 4.19634L12.9642 4.06843C12.9924 4.0786 12.9969 4.08078 13.0819 4.12414C13.095 4.13081 13.1001 4.13339 13.108 4.13727C13.161 4.1635 13.1965 4.17663 13.2166 4.17743C13.2184 4.1775 13.2093 4.18707 13.2093 4.17379C13.2093 4.07396 12.7089 3.93701 12.5349 4.02159C12.3613 4.10593 12.2193 4.04668 12.1393 3.85938Z" fill="#272727"/>
</g>
</g>
</g>
<defs>
<clipPath id="clip0_270_60953">
<rect width="20" height="15" fill="white"/>
</clipPath>
</defs>
</svg>

<svg width="20" height="15" fill="none" xmlns="http://www.w3.org/2000/svg">
  <g mask="url(#HR_-_Croatia_(Hrvatska)__a)">
    <path fill-rule="evenodd" clip-rule="evenodd" d="M0 0v15h20V0H0z" fill="#F7FCFF"/>
    <g mask="url(#HR_-_Croatia_(Hrvatska)__b)">
      <path fill-rule="evenodd" clip-rule="evenodd" d="M0 0v5h20V0H0z" fill="#E31D1C"/>
      <path fill-rule="evenodd" clip-rule="evenodd" d="M0 10v5h20v-5H0z" fill="#3D58DB"/>
      <path fill="#E31D1C" d="M6.298 3.998h7.125v2.5H6.298z"/>
      <path d="M6.658 5.6h6.33c.01.48.014 1.319.014 2.126 0 .521-.002 1.023-.003 1.394l-.002.446v.144a3.071 3.071 0 01-.092.37 3.428 3.428 0 01-.433.895c-.434.634-1.222 1.286-2.69 1.286s-2.218-.651-2.617-1.279a3.23 3.23 0 01-.461-1.261l-.002-.011v-.03l-.001-.122-.006-.443A2267.225 2267.225 0 016.658 5.6zM6.7 9.7c0-.001 0-.001 0 0h0z" fill="#F7FCFF" stroke="#E31D1C" stroke-width=".703"/>
      <g mask="url(#HR_-_Croatia_(Hrvatska)__c)">
        <path fill-rule="evenodd" clip-rule="evenodd" d="M6.562 5.65H7.88v1.339H6.562v-1.34zm2.636 1.339H7.88v1.338H6.562v1.339H7.88v1.339H6.562v1.338H7.88v-1.338h1.318v1.338h1.319v-1.338h1.318v1.338h1.318v-1.338h-1.318V9.666h1.318V8.327h-1.318V6.99h1.318V5.65h-1.318v1.34h-1.318V5.65H9.198v1.34zm0 1.338V6.99h1.319v1.338H9.198zm0 1.339V8.327H7.88v1.339h1.318zm1.319 0v1.339H9.198V9.666h1.319zm0 0V8.327h1.318v1.339h-1.318z" fill="#F50100"/>
      </g>
      <path fill-rule="evenodd" clip-rule="evenodd" d="M6.533 5.102s.408-.218.756-.33c.348-.113.622-.174.622-.174L7.394 2.69l-1.036-.387-.587.968.762 1.83z" fill="#56C6F5" stroke="#fff" stroke-width=".5"/>
      <path d="M6.363 4.057l.12-.058c.122.263.284.345.507.262.227-.085.32-.245.286-.5l.131-.016c.04.315-.086.535-.372.641-.29.109-.521-.007-.672-.33z" fill="#fff"/>
      <path fill-rule="evenodd" clip-rule="evenodd" d="M6.645 3.464l-.114.069a.034.034 0 01-.05-.036l.025-.13-.116-.065a.034.034 0 01.005-.061l.126-.043-.003-.133c0-.03.034-.046.057-.027l.1.088.114-.069a.034.034 0 01.05.036l-.025.13.116.064a.034.034 0 01-.005.062l-.126.043.003.133c0 .03-.034.046-.057.026l-.1-.087z" fill="#FECA00"/>
      <path fill-rule="evenodd" clip-rule="evenodd" d="M9.088 4.422s.348-.03.713-.024c.365.008.675.01.675.01l.178-1.88-.783-.708-.87.724.087 1.878z" fill="#56C6F5" stroke="#fff" stroke-width=".5"/>
      <path fill-rule="evenodd" clip-rule="evenodd" d="M9.844 4.116c.301 0 .33-.326.33-.548-.077-.123-.061-.21-.308-.21-.248 0-.276.074-.348.21 0 .222.024.548.326.548zm.339-.92c.302 0 .33-.326.33-.548-.077-.123-.061-.21-.308-.21s-.275.074-.348.21c0 .222.025.548.326.548zm-.659 0c.301 0 .33-.326.33-.548-.077-.123-.061-.21-.308-.21s-.276.074-.348.21c0 .222.024.548.326.548z" fill="#FECA00"/>
      <path d="M7.643 4.627l.072.244.243-.077h.004l.012-.005.047-.014a7.37 7.37 0 01.16-.046c.13-.036.279-.072.383-.087a5.6 5.6 0 01.514-.043l.042-.002h.014l.262-.012-.022-.26-.158-1.828-.01-.115-.094-.067-.852-.605-.175-.125-.15.155-.774.803-.1.104.04.14.542 1.84z" fill="#2E42A5" stroke="#fff" stroke-width=".5"/>
      <g mask="url(#HR_-_Croatia_(Hrvatska)__d)" fill="#C51918">
        <path d="M7.773 4.149l-.157-.37c.336-.146.904-.237 1.502-.272l.023.401c-.555.033-1.081.115-1.368.24zm-.264-.892l-.157-.37c.336-.146 1.059-.266 1.657-.3l.023.4c-.556.033-1.236.144-1.523.27z"/>
      </g>
      <path d="M11.988 4.621l-.068.252-.248-.079h0-.004l-.013-.005-.047-.014a7.505 7.505 0 00-.16-.046 3.4 3.4 0 00-.382-.087 5.604 5.604 0 00-.515-.043l-.042-.002h-.013 0-.001 0l-.261-.012.022-.26.158-1.828.01-.115.094-.067.852-.605.18-.128.15.163.729.8.092.1-.035.133-.498 1.843z" fill="#2E42A5" stroke="#fff" stroke-width=".5"/>
      <g mask="url(#HR_-_Croatia_(Hrvatska)__e)" fill-rule="evenodd" clip-rule="evenodd">
        <path d="M11.499 4.042s.183-.103.21-.275c.026-.173.31-.385.168-.36-.142.026-.06.045-.266 0-.206-.045-.472-.074-.472-.201 0-.126.132-.227.024-.227-.108 0-.34-.12-.293-.028.047.091-.106-.012-.03.178.077.19-.016.381.03.432.047.05-.03.297-.03.297s.028.092.077-.046c.05-.137.157-.233.103-.116-.053.116-.122.394-.06.346a.434.434 0 00.121-.23c0-.045.155-.224.155-.089s-.146.241-.073.241c.072 0 .113.029.159-.106s.157-.224.202-.135c.046.09.036.085-.025.202s0 .117 0 .117z" fill="#FECA00"/>
        <path d="M11.067 3.042l-.068-.115c.122-.076.235-.096.334-.053a.82.82 0 01.167.103l.012.008c.092.064.14.09.17.09v.134c-.068 0-.127-.032-.245-.114l-.012-.008a.818.818 0 00-.143-.09c-.055-.023-.125-.01-.215.045zm-.216.873a.07.07 0 00.07-.07.07.07 0 00-.07-.07.07.07 0 00-.07.07c0 .039.03.07.07.07zm.202.064a.07.07 0 01-.07.07.07.07 0 01-.07-.07.07.07 0 01.07-.07.07.07 0 01.07.07zm.166.064a.07.07 0 00.07-.07.07.07 0 00-.07-.069.07.07 0 00-.07.07c0 .038.031.07.07.07zm.29.042a.07.07 0 01-.07.07.07.07 0 01-.07-.07.07.07 0 01.07-.07.07.07 0 01.07.07z" fill="#C51918"/>
      </g>
      <path d="M13.431 5.154l-.108.248-.239-.127h0l-.003-.002-.013-.007a5.813 5.813 0 00-.698-.304 8.06 8.06 0 00-.556-.157l-.034-.008-.008-.002h-.002 0l-.26-.058.073-.255.529-1.86.034-.121.119-.045L13.3 2.07l.194-.072.108.177.587.967.067.11-.052.12-.774 1.783z" fill="#56C6F5" stroke="#fff" stroke-width=".5"/>
      <g mask="url(#HR_-_Croatia_(Hrvatska)__f)">
        <path fill-rule="evenodd" clip-rule="evenodd" d="M13.205 3.18l-.09.1a.034.034 0 01-.058-.02l-.014-.132-.13-.027a.034.034 0 01-.013-.06l.108-.078-.041-.127a.034.034 0 01.046-.041l.121.054.089-.099a.034.034 0 01.059.02l.013.132.13.027a.034.034 0 01.013.06l-.107.078.041.127a.034.034 0 01-.046.041l-.121-.054z" fill="#FECA00"/>
        <path d="M11.872 4.055l.133-.518c.588.155 1.2.354 1.65.546l-.205.494a12.27 12.27 0 00-1.578-.522z" fill="#E31D1C"/>
        <path d="M12.052 3.576l.031-.13c.564.14 1.163.363 1.598.571l-.056.121a8.832 8.832 0 00-1.573-.562zm-.167.534l.031-.13a8.11 8.11 0 011.52.538l-.056.121a7.981 7.981 0 00-1.495-.529z" fill="#fff"/>
        <path d="M12.14 3.86l.12-.055c.05.119.114.145.219.094.247-.12.862.048.862.275 0 .088-.051.142-.13.139a.413.413 0 01-.16-.054.82.82 0 00-.13-.063l.043-.128a.852.852 0 01.144.07.341.341 0 00.109.04c.001 0-.008.01-.008-.004 0-.1-.5-.237-.674-.152-.174.084-.316.025-.396-.163z" fill="#272727"/>
      </g>
    </g>
  </g>
</svg>
